svgs/solid/window-frame.svg

<svg xmlns="http://www.w3.org/2000/svg" viewBox="0 0 512 512"><!--! Font Awesome Pro 6.0.0-alpha3 by @fontawesome - https://fontawesome.com License - https://fontawesome.com/license (Commercial License) --><path d="M496 448H480V32c0-17.62-14.38-32-32-32H64C46.38 0 32 14.38 32 32v416H16C7.125 448 0 455.1 0 464v32C0 504.9 7.125 512 16 512h480c8.875 0 16-7.125 16-16v-32C512 455.1 504.9 448 496 448zM416 224h-144V64H416V224zM96 64h144v160H96V64zM96 288h144v160H96V288zM272 448V288H416v160H272z"/></svg>

<svg xmlns="http://www.w3.org/2000/svg" viewBox="0 0 512 512"><path d="M496,448H480V32A32,32,0,0,0,448,0H64A32,32,0,0,0,32,32V448H16A16,16,0,0,0,0,464v32a16,16,0,0,0,16,16H496a16,16,0,0,0,16-16V464A16,16,0,0,0,496,448ZM416,224H272V64H416ZM96,64H240V224H96Zm0,224H240V448H96ZM272,448V288H416V448Z"/></svg>
